assets/svg/switch.svg

<svg width="29" height="45" viewBox="0 0 29 45" fill="none" xmlns="http://www.w3.org/2000/svg">
<path d="M28.281 14.1405C28.281 10.3902 26.7912 6.79352 24.1394 4.14166C21.4875 1.4898 17.8908 0 14.1405 0C10.3902 0 6.79352 1.4898 4.14166 4.14166C1.4898 6.79352 0 10.3902 0 14.1405C0 20.7399 6.02392 27.1749 6.29297 30.583V37.1525C6.29297 39.2338 7.11977 41.2298 8.59146 42.7015C10.0632 44.1732 12.0592 45 14.1405 45C16.2218 45 18.2179 44.1732 19.6896 42.7015C21.1613 41.2298 21.988 39.2338 21.988 37.1525V30.5979C22.2571 27.1749 28.281 20.7399 28.281 14.1405Z" fill="white"/>
</svg>

<svg fill="none" viewBox="0 0 29 45" xmlns="http://www.w3.org/2000/svg">
<path d="m28.281 14.14c0-3.7503-1.4898-7.347-4.1416-9.9988-2.6519-2.6519-6.2486-4.1417-9.9989-4.1417s-7.347 1.4898-9.9988 4.1417-4.1417 6.2485-4.1417 9.9988c0 6.5994 6.0239 13.034 6.293 16.442v6.5695c0 2.0813 0.8268 4.0773 2.2985 5.549 1.4717 1.4717 3.4677 2.2985 5.549 2.2985s4.0774-0.8268 5.5491-2.2985 2.2984-3.4677 2.2984-5.549v-6.5546c0.2691-3.423 6.293-9.858 6.293-16.457z" fill="#fff"/>
</svg>
